dist/img/svg/ic_heart-solid.svg

<svg width="24" height="24" viewBox="0 0 24 24" xmlns="http://www.w3.org/2000/svg">
    <path
        d="M17.1922 2.56541H17.1949C20.6771 2.56541 23.5 5.38825 23.5 8.87043C23.5 10.3607 22.8571 11.8722 21.828 13.3304C20.8013 14.7853 19.4173 16.1484 18.0021 17.3311C15.1718 19.6966 12.2808 21.2882 12.0685 21.4014L12.0466 21.4131L12.0261 21.4268C12.0102 21.4374 11.9897 21.4373 11.974 21.4269L11.9534 21.4131L11.9315 21.4014C11.7219 21.2896 8.83021 19.6753 5.99875 17.2977C4.58318 16.109 3.19867 14.7427 2.17158 13.2914C1.1417 11.8362 0.5 10.3365 0.5 8.87043C0.5 5.38825 3.32284 2.56541 6.80503 2.56541V2.56544L6.81093 2.56537C8.6651 2.54348 10.4302 3.35898 11.6154 4.78498L11.9975 5.24459L12.3824 4.78745C13.5764 3.36957 15.3386 2.55549 17.1922 2.56541Z" />
</svg>

<svg width="24" height="24" viewBox="0 0 24 24" xmlns="http://www.w3.org/2000/svg"><path d="M17.192 2.565h.003A6.305 6.305 0 0123.5 8.87c0 1.49-.643 3.002-1.672 4.46-1.027 1.455-2.41 2.818-3.826 4.001-2.83 2.366-5.721 3.957-5.933 4.07l-.022.012-.02.014a.047.047 0 01-.053 0l-.02-.014-.023-.012c-.21-.111-3.1-1.726-5.932-4.103-1.416-1.189-2.8-2.555-3.827-4.007C1.142 11.836.5 10.336.5 8.871a6.305 6.305 0 016.305-6.306h.006a6.153 6.153 0 014.804 2.22l.383.46.384-.458a6.244 6.244 0 014.81-2.222z"/></svg>
